vivaldi-source/chromium/chrome/browser/resources/settings/chromeos/images/error_badge_dark.svg

<svg width="20" height="20" viewBox="0 0 20 20" fill="none" xmlns="http://www.w3.org/2000/svg"><circle cx="10" cy="10" r="6" fill="#F28B82"/><path fill-rule="evenodd" clip-rule="evenodd" d="M9 10H11V6H9V10ZM10 2C5.584 2 2 5.584 2 10C2 14.416 5.584 18 10 18C14.416 18 18 14.416 18 10C18 5.584 14.416 2 10 2ZM10 16C6.6925 16 4 13.3075 4 10C4 6.6925 6.6925 4 10 4C13.3075 4 16 6.6925 16 10C16 13.3075 13.3075 16 10 16ZM9 14H11V12H9V14Z" fill="#202124"/><path fill-rule="evenodd" clip-rule="evenodd" d="M9 10H11V6H9V10ZM10 2C5.584 2 2 5.584 2 10C2 14.416 5.584 18 10 18C14.416 18 18 14.416 18 10C18 5.584 14.416 2 10 2ZM10 16C6.6925 16 4 13.3075 4 10C4 6.6925 6.6925 4 10 4C13.3075 4 16 6.6925 16 10C16 13.3075 13.3075 16 10 16ZM9 14H11V12H9V14Z" fill="white" fill-opacity="0.04"/></svg>

<svg width="20" height="20" viewBox="0 0 20 20" fill="none" xmlns="http://www.w3.org/2000/svg"><circle cx="10" cy="10" r="6" fill="#F28B82"/><path fill-rule="evenodd" clip-rule="evenodd" d="M9 10h2V6H9v4Zm1-8c-4.416 0-8 3.584-8 8s3.584 8 8 8 8-3.584 8-8-3.584-8-8-8Zm0 14c-3.308 0-6-2.693-6-6 0-3.308 2.692-6 6-6 3.307 0 6 2.692 6 6 0 3.307-2.693 6-6 6Zm-1-2h2v-2H9v2Z" fill="#202124"/><path fill-rule="evenodd" clip-rule="evenodd" d="M9 10h2V6H9v4Zm1-8c-4.416 0-8 3.584-8 8s3.584 8 8 8 8-3.584 8-8-3.584-8-8-8Zm0 14c-3.308 0-6-2.693-6-6 0-3.308 2.692-6 6-6 3.307 0 6 2.692 6 6 0 3.307-2.693 6-6 6Zm-1-2h2v-2H9v2Z" fill="#fff" fill-opacity=".04"/></svg>
